!!!ONR: No. 21
!! From Harold Courlander, "Haiti Singing"
!! Chapel Hill: University of North Carolina Press, 1939
!! Copyright University of North Carolina Press
!!!ENC: D. Huron
**kern
*clefG2
*k[]
*M2/4
=1-
4r
(16e
16g)
16g
16a
=2
4.g
8a
=3
8a
8g
8e
8g
=4
4d
[4d
=5
8d]
8A
8c
8d
=6
4.c
8d
=7
8c
8c
8A
8A
=8
4G
8.G
16A
=9
8c
8A
12c
12c
12e
=10
8.g
16e
8c
8d
=11
8g
8g
8d
[8d
=12
2d]
==
*-
